public/images/hashed/6e26eb3657449f1fc9e2ab3e403e071a.svg

<svg xmlns="http://www.w3.org/2000/svg" width="80" height="80"><defs><linearGradient id="a" x1="0%" x2="100%" y1="100%" y2="0%"><stop offset="0%" stop-color="#B0084D"/><stop offset="100%" stop-color="#FF4F8B"/></linearGradient></defs><g fill="none" fill-rule="evenodd"><path fill="url(#a)" d="M0 0h80v80H0z"/><path fill="#FFF" d="M63.726 30.349a3.397 3.397 0 0 1-1.226.225c-1.929 0-3.5-1.57-3.5-3.5a3.47 3.47 0 0 1 1.689-2.987 3.37 3.37 0 0 1 1.811-.513c1.93 0 3.5 1.57 3.5 3.5 0 1.449-.91 2.763-2.274 3.275ZM62.5 21.574c-.712 0-1.409.146-2.054.409a23.972 23.972 0 0 0-1.76-2.027C53.74 14.826 47.083 12 39.944 12c-7.098 0-13.737 2.805-18.695 7.896l1.434 1.396C27.26 16.59 33.391 14 39.944 14c6.592 0 12.736 2.608 17.31 7.352a21.64 21.64 0 0 1 1.5 1.714A5.437 5.437 0 0 0 57 27.074c0 3.033 2.468 5.5 5.5 5.5a5.517 5.517 0 0 0 5.5-5.5c0-3.033-2.467-5.5-5.5-5.5ZM43.435 62.72A3.503 3.503 0 0 1 39.944 66c-1.843 0-3.376-1.441-3.497-3.347-.006-.05-.003-.104-.003-.153 0-1.929 1.57-3.5 3.5-3.5 1.929 0 3.5 1.571 3.5 3.5 0 .052.003.111-.009.22Zm20.36-27.962c.158 1.061.237 2.181.237 3.33A24.03 24.03 0 0 1 47.46 60.981c-.664.228-1.375.414-2.102.58C44.91 58.975 42.655 57 39.944 57a5.507 5.507 0 0 0-5.5 5.5c0 .132.003.28.013.344A5.507 5.507 0 0 0 39.944 68a5.493 5.493 0 0 0 5.367-4.385 22.828 22.828 0 0 0 2.786-.738c10.728-3.516 17.935-13.478 17.935-24.789 0-1.246-.087-2.465-.258-3.622l-1.979.292ZM17.5 23.574c.618 0 1.224.166 1.76.483A3.456 3.456 0 0 1 21 27.074a3.504 3.504 0 0 1-4.809 3.248 3.5 3.5 0 0 1 1.309-6.748Zm-1.643 14.514c0-1.167.079-2.299.237-3.372.107-.763.262-1.505.439-2.234.315.056.637.092.967.092 3.033 0 5.5-2.467 5.5-5.5a5.503 5.503 0 0 0-2.728-4.742 5.44 5.44 0 0 0-2.772-.758 5.506 5.506 0 0 0-5.5 5.5 5.483 5.483 0 0 0 2.65 4.702 24.67 24.67 0 0 0-.535 2.656 25.215 25.215 0 0 0-.258 3.656c0 11.311 7.207 21.273 17.934 24.789l.623-1.901c-9.903-3.246-16.557-12.444-16.557-22.888Zm17.116 12.898v-6.794L39 40.778v6.794l-6.027 3.414Zm-8.026-10.208 6.026 3.414v6.794l-6.026-3.414v-6.794Zm7.026-5.113 5.998 3.397-5.998 3.397-5.997-3.397 5.997-3.397Zm1-8.527L39 30.552v6.794l-6.027-3.414v-6.794ZM40 22.025l5.998 3.397L40 28.819l-5.998-3.397L40 22.025Zm7.028 11.907L41 37.346v-6.794l6.028-3.414v6.794Zm6.997 5.13-5.997 3.397-5.998-3.397 5.998-3.397 5.997 3.397Zm1.029 8.51-6.026 3.414v-6.794l6.026-3.414v6.794Zm-8.026 3.414L41 47.572v-6.794l6.028 3.414v6.794Zm.507 2.586a.996.996 0 0 0 .986 0l8.026-4.547a.997.997 0 0 0 .507-.87v-9.093a1 1 0 0 0-.507-.87l-7.519-4.26v-8.51c0-.36-.194-.692-.507-.87l-8.027-4.547a1.003 1.003 0 0 0-.987 0l-8.027 4.547a1 1 0 0 0-.507.87v8.51l-7.519 4.26a1 1 0 0 0-.507.87v9.093c0 .361.193.693.507.87l8.026 4.547c.307.173.68.173.986 0L40 49.305l7.535 4.267Z"/></g></svg>

<?xml version="1.0" encoding="UTF-8"?>
<svg width="80px" height="80px" viewBox="0 0 80 80" version="1.1" xmlns="http://www.w3.org/2000/svg" xmlns:xlink="http://www.w3.org/1999/xlink">
    <!-- Generator: Sketch 64 (93537) - https://sketch.com -->
    <title>Icon-Architecture/64/Arch_AWS-Service-Catalog_64</title>
    <desc>Created with Sketch.</desc>
    <defs>
        <linearGradient x1="0%" y1="100%" x2="100%" y2="0%" id="linearGradient-1">
            <stop stop-color="#B0084D" offset="0%"></stop>
            <stop stop-color="#FF4F8B" offset="100%"></stop>
        </linearGradient>
    </defs>
    <g id="Icon-Architecture/64/Arch_AWS-Service-Catalog_64" stroke="none" stroke-width="1" fill="none" fill-rule="evenodd">
        <g id="Icon-Architecture-BG/64/Management-Governance" fill="url(#linearGradient-1)">
            <rect id="Rectangle" x="0" y="0" width="80" height="80"></rect>
        </g>
        <path d="M63.726,30.349 C63.339,30.498 62.927,30.574 62.5,30.574 C60.571,30.574 59,29.004 59,27.074 C59,25.847 59.628,24.732 60.689,24.087 C61.236,23.746 61.845,23.574 62.5,23.574 C64.43,23.574 66,25.144 66,27.074 C66,28.523 65.09,29.837 63.726,30.349 L63.726,30.349 Z M62.5,21.574 C61.788,21.574 61.091,21.72 60.446,21.983 C59.887,21.271 59.304,20.583 58.686,19.956 C53.74,14.826 47.083,12 39.944,12 C32.846,12 26.207,14.805 21.249,19.896 L22.683,21.292 C27.26,16.59 33.391,14 39.944,14 C46.536,14 52.68,16.608 57.254,21.352 C57.782,21.888 58.278,22.468 58.754,23.066 C57.646,24.093 57,25.523 57,27.074 C57,30.107 59.468,32.574 62.5,32.574 C63.174,32.574 63.83,32.453 64.437,32.218 C66.569,31.419 68,29.352 68,27.074 C68,24.041 65.533,21.574 62.5,21.574 L62.5,21.574 Z M43.435,62.72 C43.321,64.559 41.787,66 39.944,66 C38.101,66 36.568,64.559 36.447,62.653 C36.441,62.603 36.444,62.549 36.444,62.5 C36.444,60.571 38.014,59 39.944,59 C41.873,59 43.444,60.571 43.444,62.5 C43.444,62.552 43.447,62.611 43.435,62.72 L43.435,62.72 Z M63.795,34.758 C63.953,35.819 64.032,36.939 64.032,38.088 C64.032,48.532 57.377,57.73 47.46,60.981 C46.796,61.209 46.085,61.395 45.358,61.561 C44.91,58.975 42.655,57 39.944,57 C36.912,57 34.444,59.468 34.444,62.5 C34.444,62.632 34.447,62.78 34.457,62.844 C34.637,65.735 37.047,68 39.944,68 C42.589,68 44.809,66.103 45.311,63.615 C46.284,63.414 47.228,63.176 48.097,62.877 C58.825,59.361 66.032,49.399 66.032,38.088 C66.032,36.842 65.945,35.623 65.774,34.466 L63.795,34.758 Z M17.5,23.574 C18.118,23.574 18.724,23.74 19.26,24.057 C20.35,24.69 21,25.818 21,27.074 C21,29.004 19.43,30.574 17.5,30.574 C17.038,30.574 16.597,30.49 16.191,30.322 C14.861,29.779 14,28.504 14,27.074 C14,25.144 15.571,23.574 17.5,23.574 L17.5,23.574 Z M15.857,38.088 C15.857,36.921 15.936,35.789 16.094,34.716 C16.201,33.953 16.356,33.211 16.533,32.482 C16.848,32.538 17.17,32.574 17.5,32.574 C20.533,32.574 23,30.107 23,27.074 C23,25.126 21.952,23.307 20.272,22.332 C19.435,21.836 18.476,21.574 17.5,21.574 C14.468,21.574 12,24.041 12,27.074 C12,29.024 13.018,30.787 14.65,31.776 C14.43,32.643 14.241,33.529 14.115,34.432 C13.944,35.594 13.857,36.824 13.857,38.088 C13.857,49.399 21.064,59.361 31.791,62.877 L32.414,60.976 C22.511,57.73 15.857,48.532 15.857,38.088 L15.857,38.088 Z M32.973,50.986 L32.973,44.192 L39,40.778 L39,47.572 L32.973,50.986 Z M24.947,40.778 L30.973,44.192 L30.973,50.986 L24.947,47.572 L24.947,40.778 Z M31.973,35.665 L37.971,39.062 L31.973,42.459 L25.976,39.062 L31.973,35.665 Z M32.973,27.138 L39,30.552 L39,37.346 L32.973,33.932 L32.973,27.138 Z M40,22.025 L45.998,25.422 L40,28.819 L34.002,25.422 L40,22.025 Z M47.028,33.932 L41,37.346 L41,30.552 L47.028,27.138 L47.028,33.932 Z M54.025,39.062 L48.028,42.459 L42.03,39.062 L48.028,35.665 L54.025,39.062 Z M55.054,47.572 L49.028,50.986 L49.028,44.192 L55.054,40.778 L55.054,47.572 Z M47.028,50.986 L41,47.572 L41,40.778 L47.028,44.192 L47.028,50.986 Z M47.535,53.572 C47.688,53.659 47.858,53.702 48.028,53.702 C48.198,53.702 48.368,53.659 48.521,53.572 L56.547,49.025 C56.861,48.848 57.054,48.516 57.054,48.155 L57.054,39.062 C57.054,38.702 56.861,38.37 56.547,38.192 L49.028,33.932 L49.028,25.422 C49.028,25.062 48.834,24.73 48.521,24.552 L40.494,20.005 C40.187,19.832 39.814,19.832 39.507,20.005 L31.48,24.552 C31.166,24.73 30.973,25.062 30.973,25.422 L30.973,33.932 L23.454,38.192 C23.14,38.37 22.947,38.702 22.947,39.062 L22.947,48.155 C22.947,48.516 23.14,48.848 23.454,49.025 L31.48,53.572 C31.787,53.745 32.16,53.745 32.466,53.572 L40,49.305 L47.535,53.572 Z" id="AWS-Service-Catalog_Icon_64_Squid" fill="#FFFFFF"></path>
    </g>
</svg>
